; generated by PrusaSlicer 2.4.0-beta3+linux-x64 on 2022-01-06 at 11:36:39 UTC

; 

; external perimeters extrusion width = 0.45mm
; perimeters extrusion width = 0.45mm
; infill extrusion width = 0.45mm
; solid infill extrusion width = 0.45mm
; top infill extrusion width = 0.40mm
; first layer extrusion width = 0.42mm

M107
M190 S110 ; set bed temperature and wait for it to be reached
G10 S270 ; set temperature
;TYPE:Custom
G28 ; home all axes
G1 Z5 F5000 ; lift nozzle
G10 S270 ; set temperature
M116 ; wait for temperature to be reached
G21 ; set units to millimeters
G90 ; use absolute coordinates
M82 ; use absolute distances for extrusion
G92 E0
; Filament gcode
M107
;LAYER_CHANGE
;Z:0.35
;HEIGHT:0.35
G1 Z.35 F7800
G1 E-2 F2400
G92 E0
G1 X83.321 Y70.914 F7800
G1 E2 F2400
;TYPE:Skirt/Brim
;WIDTH:0.42
G1 F1800
G1 X83.999 Y70.242 E2.04791
G1 X84.708 Y69.705 E2.09253
G1 X85.32 Y69.347 E2.1281
G1 X86.356 Y68.917 E2.1844
G1 X87.968 Y68.611 E2.26674
G1 X111.6 Y68.596 E3.45277
G1 X113.165 Y68.783 E3.53184
G1 X114.088 Y69.077 E3.58045
G1 X115.292 Y69.705 E3.64862
G1 X116.246 Y70.463 E3.70978
G1 X117.116 Y71.464 E3.77631
G1 X117.723 Y72.482 E3.83578
G1 X118.169 Y73.618 E3.89704
G1 X118.428 Y74.795 E3.9575
G1 X118.51 Y75.95 E4.01563
G1 X118.504 Y108.822 E5.66535
G1 X118.294 Y110.263 E5.73844
G1 X117.983 Y111.195 E5.78776
G1 X117.571 Y112.028 E5.83436
G1 X116.595 Y113.324 E5.91581
G1 X115.957 Y113.912 E5.95933
G1 X115.171 Y114.465 E6.00754
G1 X113.804 Y115.098 E6.08317
G1 X112.282 Y115.426 E6.16128
G1 X88.151 Y115.455 E7.37234
G1 X87.228 Y115.359 E7.41889
G1 X86.36 Y115.152 E7.46369
G1 X84.914 Y114.516 E7.54297
G1 X83.662 Y113.579 E7.62148
G1 X82.654 Y112.387 E7.69981
G1 X81.886 Y110.854 E7.78582
G1 X81.613 Y109.847 E7.83821
G1 X81.505 Y109.001 E7.88102
G1 X81.493 Y75.75 E9.54972
G1 X81.578 Y74.749 E9.60014
G1 X81.818 Y73.662 E9.65599
G1 X82.206 Y72.632 E9.71124
G1 X82.553 Y71.973 E9.74865
G1 X83.286 Y70.962 E9.81129
G1 E7.81129 F2400
G92 E0
G1 X90.343 Y75.841 F7800
G1 E2 F2400
;TYPE:Perimeter
G1 F1800
G1 X97.545 Y75.841 E2.36143
G1 X97.272 Y76.202 E2.38414
G1 X97.089 Y76.558 E2.40422
G1 X96.966 Y76.95 E2.42484
G1 X96.917 Y77.315 E2.44332
G1 X96.915 Y108.215 E3.99409
G1 X88.735 Y108.215 E4.40464
G1 X88.735 Y75.977 E6.02253
G1 X88.743 Y75.841 E6.02939
G1 X90.283 Y75.841 E6.10667
G1 X89.68 Y75.496 F7800
G1 F1800
G1 X98.31 Y75.496 E6.53976
G1 X98.355 Y75.641 E6.5474
G1 X98.089 Y75.825 E6.56365
G1 X97.778 Y76.104 E6.5846
G1 X97.565 Y76.386 E6.60233
G1 X97.409 Y76.689 E6.61943
G1 X97.304 Y77.025 E6.63708
G1 X97.262 Y77.338 E6.65293
G1 X97.26 Y108.56 E8.21985
G1 X88.39 Y108.56 E8.66501
G1 X88.39 Y75.967 E10.30074
G1 X88.401 Y75.79 E10.30961
G1 X88.48 Y75.496 E10.32491
G1 X89.62 Y75.496 E10.38212
G1 E8.38212 F2400
G92 E0
G1 X102.432 Y75.841 F7800
G1 E2 F2400
G1 F1800
G1 X111.249 Y75.841 E2.44251
G1 X111.265 Y75.997 E2.45038
G1 X111.265 Y108.215 E4.06729
G1 X103.085 Y108.215 E4.47784
G1 X103.08 Y77.243 E6.03222
G1 X102.964 Y76.697 E6.06021
G1 X102.83 Y76.386 E6.07723
G1 X102.632 Y76.058 E6.09645
G1 X102.472 Y75.885 E6.10827
G1 X102.219 Y76.119 F7800
G1 F1800
G1 X102.079 Y75.967 E6.11864
G1 X101.658 Y75.645 E6.14522
G1 X101.701 Y75.496 E6.15302
G1 X111.512 Y75.496 E6.64538
G1 X111.58 Y75.688 E6.65563
G1 X111.61 Y75.979 E6.67028
G1 X111.61 Y108.56 E8.3054
G1 X102.74 Y108.56 E8.75057
G1 X102.735 Y77.279 E10.32044
G1 X102.634 Y76.802 E10.3449
G1 X102.523 Y76.544 E10.35901
G1 X102.355 Y76.267 E10.37529
G1 X102.259 Y76.163 E10.38237
G1 E8.38237 F2400
G92 E0
G1 X88.256 Y75.229 F7800
G1 E2 F2400
;TYPE:External perimeter
G1 F1800
G1 X88.323 Y75.175 E2.00431
G1 X88.417 Y75.151 E2.0092
G1 X111.583 Y75.151 E3.1718
G1 X111.694 Y75.187 E3.17765
G1 X111.759 Y75.247 E3.18208
G1 X111.823 Y75.343 E3.18788
G1 X111.919 Y75.612 E3.20221
G1 X111.955 Y75.961 E3.21983
G1 X111.955 Y108.535 E4.85457
G1 X111.938 Y108.649 E4.86035
G1 X111.886 Y108.756 E4.86636
G1 X111.834 Y108.815 E4.87032
G1 X111.686 Y108.893 E4.87868
G1 X111.587 Y108.905 E4.8837
G1 X102.765 Y108.905 E5.32646
G1 X102.656 Y108.89 E5.33194
G1 X102.558 Y108.846 E5.33734
G1 X102.473 Y108.768 E5.34312
G1 X102.422 Y108.678 E5.34829
G1 X102.395 Y108.531 E5.35584
G1 X102.391 Y77.315 E6.9224
G1 X102.304 Y76.907 E6.94334
G1 X102.216 Y76.702 E6.95454
G1 X102.078 Y76.475 E6.96788
G1 X101.843 Y76.22 E6.98529
G1 X101.548 Y75.984 E7.00421
G1 X101.376 Y75.876 E7.01443
G1 X101.18 Y75.781 E7.02538
G1 X100.843 Y75.701 E7.04275
G1 X99.224 Y75.699 E7.12401
G1 X99.024 Y75.721 E7.1341
G1 X98.815 Y75.784 E7.14504
G1 X98.62 Y75.877 E7.15591
G1 X98.303 Y76.097 E7.17525
G1 X98.033 Y76.339 E7.19342
G1 X97.858 Y76.571 E7.20801
G1 X97.729 Y76.821 E7.22214
G1 X97.642 Y77.1 E7.23681
G1 X97.607 Y77.361 E7.25003
G1 X97.605 Y108.532 E8.81438
G1 X97.582 Y108.667 E8.82127
G1 X97.525 Y108.771 E8.82723
G1 X97.463 Y108.832 E8.83156
G1 X97.369 Y108.882 E8.83689
G1 X97.232 Y108.905 E8.84386
G1 X88.415 Y108.905 E9.28639
G1 X88.306 Y108.89 E9.29187
G1 X88.204 Y108.844 E9.2975
G1 X88.089 Y108.717 E9.30608
G1 X88.045 Y108.535 E9.31548
G1 X88.045 Y75.956 E10.95048
G1 X88.058 Y75.747 E10.96103
G1 X88.098 Y75.542 E10.97147
G1 X88.148 Y75.4 E10.97904
G1 X88.218 Y75.276 E10.98621
G1 X88.34 Y75.249 F7800
G1 E8.98621 F2400
G92 E0
G1 X96.652 Y75.944 F7800
G1 E2 F2400
;TYPE:Solid infill
;WIDTH:0.422299
G1 F1800
G1 X96.957 Y76.249 E2.02176
G1 X96.849 Y76.459 E2.03371
G1 X96.808 Y76.59 E2.04066
G1 X96.317 Y76.1 E2.07574
G1 X95.826 Y76.1 E2.10054
G1 X96.702 Y76.976 E2.16314
G1 X96.659 Y77.423 E2.18587
G1 X95.335 Y76.1 E2.28045
G1 X94.844 Y76.1 E2.30526
G1 X96.659 Y77.914 E2.43492
G1 X96.659 Y78.405 E2.45973
G1 X94.353 Y76.1 E2.62447
G1 X93.862 Y76.1 E2.64928
G1 X96.658 Y78.896 E2.8491
G1 X96.658 Y79.387 E2.8739
G1 X93.371 Y76.1 E3.1088
G1 X92.88 Y76.1 E3.13361
G1 X96.658 Y79.878 E3.40358
G1 X96.658 Y80.369 E3.42839
G1 X92.389 Y76.1 E3.73344
G1 X91.898 Y76.1 E3.75825
G1 X96.658 Y80.86 E4.09838
G1 X96.658 Y81.351 E4.12318
G1 X91.407 Y76.1 E4.49839
G1 X90.916 Y76.1 E4.5232
G1 X96.658 Y81.842 E4.93349
G1 X96.658 Y82.333 E4.95829
G1 X90.425 Y76.1 E5.40366
G1 X89.934 Y76.1 E5.42846
G1 X96.658 Y82.824 E5.90891
G1 X96.658 Y83.315 E5.93371
G1 X89.443 Y76.1 E6.44924
G1 X89.002 Y76.1 E6.47152
G1 X89.002 Y76.149 E6.47404
G1 X96.658 Y83.806 E7.02108
G1 X96.658 Y84.297 E7.04588
G1 X89.001 Y76.64 E7.59293
G1 X89.001 Y77.131 E7.61772
G1 X96.658 Y84.788 E8.16478
G1 X96.658 Y85.279 E8.18958
G1 X89.001 Y77.622 E8.73664
G1 X89.001 Y78.113 E8.76144
G1 X96.658 Y85.77 E9.3085
G1 X96.658 Y86.261 E9.33331
G1 X89.001 Y78.604 E9.88038
G1 X89.001 Y79.095 E9.90518
G1 X96.658 Y86.752 E10.45225
G1 X96.658 Y87.243 E10.47706
G1 X89.001 Y79.585 E11.02414
G1 X89.001 Y80.076 E11.04894
G1 X96.658 Y87.734 E11.59603
G1 X96.658 Y88.225 E11.62084
G1 X89 Y80.567 E12.16794
G1 X89 Y81.058 E12.19273
G1 X96.658 Y88.716 E12.73984
G1 X96.658 Y89.207 E12.76464
G1 X89 Y81.549 E13.31176
G1 X89 Y82.04 E13.33655
G1 X96.658 Y89.698 E13.88367
G1 X96.658 Y90.189 E13.90848
G1 X89 Y82.531 E14.4556
G1 X89 Y83.022 E14.4804
G1 X96.658 Y90.68 E15.02753
G1 X96.658 Y91.17 E15.05234
G1 X89 Y83.512 E15.59948
G1 X89 Y84.003 E15.62428
G1 X96.658 Y91.661 E16.17142
G1 X96.658 Y92.152 E16.19623
G1 X88.999 Y84.494 E16.74338
G1 X88.999 Y84.985 E16.76818
G1 X96.658 Y92.643 E17.31534
G1 X96.658 Y93.134 E17.34014
G1 X88.999 Y85.476 E17.88731
G1 X88.999 Y85.967 E17.91211
G1 X96.658 Y93.625 E18.45928
G1 X96.658 Y94.116 E18.48408
G1 X88.999 Y86.458 E19.03126
G1 X88.999 Y86.949 E19.05606
G1 X96.657 Y94.607 E19.60325
G1 X96.657 Y95.098 E19.62805
G1 X88.999 Y87.439 E20.17524
G1 X88.999 Y87.93 E20.20004
G1 X96.657 Y95.589 E20.74724
G1 X96.657 Y96.08 E20.77205
G1 X88.998 Y88.421 E21.31925
G1 X88.998 Y88.912 E21.34405
G1 X96.657 Y96.571 E21.89127
G1 X96.657 Y97.062 E21.91607
G1 X88.998 Y89.403 E22.46329
G1 X88.998 Y89.894 E22.48809
G1 X96.657 Y97.553 E23.03532
G1 X96.657 Y98.044 E23.06012
G1 X88.998 Y90.385 E23.60735
G1 X88.998 Y90.876 E23.63215
G1 X96.657 Y98.535 E24.17939
G1 X96.657 Y99.026 E24.2042
G1 X88.998 Y91.366 E24.75144
G1 X88.998 Y91.857 E24.77624
G1 X96.657 Y99.517 E25.3235
G1 X96.657 Y100.008 E25.3483
G1 X88.997 Y92.348 E25.89556
G1 X88.997 Y92.839 E25.92036
G1 X96.657 Y100.499 E26.46763
G1 X96.657 Y100.99 E26.49243
G1 X88.997 Y93.33 E27.03971
G1 X88.997 Y93.821 E27.06451
G1 X96.657 Y101.481 E27.61179
G1 X96.657 Y101.972 E27.63659
G1 X88.997 Y94.312 E28.18388
G1 X88.997 Y94.803 E28.20868
G1 X96.657 Y102.463 E28.75597
G1 X96.657 Y102.954 E28.78078
G1 X88.997 Y95.293 E29.32808
G1 X88.997 Y95.784 E29.35288
G1 X96.657 Y103.445 E29.90019
G1 X96.657 Y103.936 E29.92499
G1 X88.996 Y96.275 E30.4723
G1 X88.996 Y96.766 E30.4971
G1 X96.657 Y104.427 E31.04442
G1 X96.657 Y104.918 E31.06923
G1 X88.996 Y97.257 E31.61656
G1 X88.996 Y97.748 E31.64136
G1 X96.657 Y105.409 E32.18869
G1 X96.657 Y105.899 E32.2135
G1 X88.996 Y98.239 E32.76084
G1 X88.996 Y98.73 E32.78564
G1 X96.657 Y106.39 E33.33299
G1 X96.657 Y106.881 E33.35779
G1 X88.996 Y99.22 E33.90514
G1 X88.996 Y99.711 E33.92994
G1 X96.657 Y107.372 E34.47731
G1 X96.657 Y107.863 E34.50211
G1 X88.995 Y100.202 E35.04948
G1 X88.995 Y100.693 E35.07428
G1 X96.259 Y107.957 E35.59324
G1 X95.768 Y107.957 E35.61805
G1 X88.995 Y101.184 E36.10194
G1 X88.995 Y101.675 E36.12673
G1 X95.277 Y107.957 E36.57555
G1 X94.786 Y107.957 E36.60036
G1 X88.995 Y102.166 E37.01411
G1 X88.995 Y102.656 E37.03891
G1 X94.295 Y107.957 E37.41758
G1 X93.804 Y107.957 E37.44239
G1 X88.995 Y103.147 E37.78599
G1 X88.995 Y103.638 E37.81079
G1 X93.313 Y107.957 E38.11933
G1 X92.822 Y107.957 E38.14413
G1 X88.994 Y104.129 E38.4176
G1 X88.994 Y104.62 E38.4424
G1 X92.331 Y107.957 E38.68079
G1 X91.84 Y107.957 E38.70559
G1 X88.994 Y105.111 E38.90892
G1 X88.994 Y105.602 E38.93371
G1 X91.349 Y107.957 E39.10196
G1 X90.858 Y107.957 E39.12677
G1 X88.994 Y106.093 E39.25995
G1 X88.994 Y106.583 E39.28475
G1 X90.367 Y107.957 E39.38285
G1 X89.876 Y107.957 E39.40766
G1 X88.994 Y107.074 E39.4707
G1 X88.994 Y107.565 E39.4955
G1 X89.54 Y108.112 E39.53455
G1 E37.53455 F2400
G92 E0
G1 X97.811 Y75.813 F7800
G1 E2 F2400
;TYPE:Gap fill
;WIDTH:0.148673
G1 F1800
G1 X97.943 Y75.668 E2.00209
G1 X98.499 Y75.523 F7800
;WIDTH:0.401403
G1 F1800
G1 X98.685 Y75.481 E2.01115
;WIDTH:0.389419
G1 X98.709 Y75.476 E2.01228
;WIDTH:0.380335
G1 X98.832 Y75.458 E2.01782
;WIDTH:0.344132
G1 X98.956 Y75.44 E2.02271
;WIDTH:0.307929
G1 X98.977 Y75.438 E2.02342
;WIDTH:0.303727
G1 X99.203 Y75.425 E2.03097
;WIDTH:0.278857
G1 X99.215 Y75.425 E2.0313
;WIDTH:0.279881
G1 X100.863 Y75.426 E2.08043
;WIDTH:0.282718
G1 X100.887 Y75.427 E2.08116
;WIDTH:0.327994
G1 X101.08 Y75.45 E2.08829
;WIDTH:0.373271
G1 X101.272 Y75.473 E2.09669
;WIDTH:0.384449
G1 X101.305 Y75.478 E2.09817
;WIDTH:0.405755
G1 X101.513 Y75.526 E2.10844
G1 E.10844 F2400
G92 E0
G1 X111.162 Y76.645 F7800
G1 E2 F2400
;TYPE:Solid infill
;WIDTH:0.421853
G1 F1800
G1 X110.616 Y76.1 E2.03896
G1 X110.126 Y76.1 E2.0637
G1 X111.007 Y76.981 E2.12657
G1 X111.007 Y77.471 E2.15131
G1 X109.635 Y76.1 E2.24917
G1 X109.145 Y76.1 E2.27391
G1 X111.007 Y77.961 E2.40676
G1 X111.007 Y78.452 E2.4315
G1 X108.654 Y76.1 E2.59935
G1 X108.164 Y76.1 E2.62409
G1 X111.007 Y78.942 E2.82692
G1 X111.007 Y79.432 E2.85166
G1 X107.674 Y76.1 E3.08948
G1 X107.183 Y76.1 E3.11422
G1 X111.007 Y79.923 E3.38704
G1 X111.007 Y80.413 E3.41178
G1 X106.693 Y76.1 E3.71958
G1 X106.203 Y76.1 E3.74432
G1 X111.007 Y80.904 E4.08711
G1 X111.007 Y81.394 E4.11185
G1 X105.712 Y76.1 E4.48963
G1 X105.222 Y76.1 E4.51438
G1 X111.007 Y81.884 E4.92715
G1 X111.007 Y82.375 E4.95189
G1 X104.731 Y76.1 E5.39965
G1 X104.241 Y76.1 E5.42439
G1 X111.007 Y82.865 E5.90715
G1 X111.007 Y83.355 E5.93189
G1 X103.751 Y76.1 E6.44963
G1 X103.26 Y76.1 E6.47437
G1 X111.007 Y83.846 E7.0271
G1 X111.007 Y84.336 E7.05184
G1 X103.154 Y76.484 E7.61217
G1 X103.212 Y76.619 E7.61958
G1 X103.324 Y77.143 E7.64666
G1 X111.007 Y84.826 E8.19488
G1 X111.007 Y85.317 E8.21962
G1 X103.339 Y77.649 E8.76674
G1 X103.339 Y78.14 E8.79149
G1 X111.007 Y85.807 E9.3386
G1 X111.007 Y86.298 E9.36334
G1 X103.339 Y78.63 E9.91045
G1 X103.339 Y79.121 E9.9352
G1 X111.007 Y86.788 E10.48231
G1 X111.007 Y87.278 E10.50705
G1 X103.339 Y79.611 E11.05415
G1 X103.339 Y80.101 E11.07889
G1 X111.007 Y87.769 E11.62599
G1 X111.007 Y88.259 E11.65073
G1 X103.339 Y80.592 E12.19782
G1 X103.339 Y81.082 E12.22257
G1 X111.007 Y88.749 E12.76966
G1 X111.007 Y89.24 E12.7944
G1 X103.34 Y81.573 E13.34148
G1 X103.34 Y82.063 E13.36622
G1 X111.007 Y89.73 E13.9133
G1 X111.007 Y90.221 E13.93804
G1 X103.34 Y82.554 E14.48511
G1 X103.34 Y83.044 E14.50986
G1 X111.007 Y90.711 E15.05693
G1 X111.007 Y91.201 E15.08167
G1 X103.34 Y83.534 E15.62873
G1 X103.34 Y84.025 E15.65348
G1 X111.007 Y91.692 E16.20053
G1 X111.007 Y92.182 E16.22527
G1 X103.34 Y84.515 E16.77233
G1 X103.34 Y85.006 E16.79707
G1 X111.007 Y92.672 E17.34412
G1 X111.007 Y93.163 E17.36886
G1 X103.34 Y85.496 E17.9159
G1 X103.34 Y85.987 E17.94065
G1 X111.007 Y93.653 E18.48768
G1 X111.007 Y94.143 E18.51243
G1 X103.34 Y86.477 E19.05946
G1 X103.34 Y86.968 E19.0842
G1 X111.007 Y94.634 E19.63123
G1 X111.007 Y95.124 E19.65597
G1 X103.34 Y87.458 E20.20299
G1 X103.34 Y87.948 E20.22774
G1 X111.007 Y95.615 E20.77476
G1 X111.007 Y96.105 E20.7995
G1 X103.341 Y88.439 E21.34651
G1 X103.341 Y88.929 E21.37126
G1 X111.007 Y96.595 E21.91826
G1 X111.007 Y97.086 E21.943
G1 X103.341 Y89.42 E22.49001
G1 X103.341 Y89.91 E22.51475
G1 X111.007 Y97.576 E23.06175
G1 X111.007 Y98.066 E23.08649
G1 X103.341 Y90.401 E23.63348
G1 X103.341 Y90.891 E23.65823
G1 X111.007 Y98.557 E24.20522
G1 X111.007 Y99.047 E24.22996
G1 X103.341 Y91.381 E24.77694
G1 X103.341 Y91.872 E24.80169
G1 X111.007 Y99.538 E25.34866
G1 X111.007 Y100.028 E25.37341
G1 X103.341 Y92.362 E25.92038
G1 X103.341 Y92.853 E25.94512
G1 X111.007 Y100.518 E26.49209
G1 X111.007 Y101.009 E26.51683
G1 X103.341 Y93.343 E27.0638
G1 X103.341 Y93.834 E27.08854
G1 X111.007 Y101.499 E27.6355
G1 X111.007 Y101.989 E27.66024
G1 X103.341 Y94.324 E28.20719
G1 X103.341 Y94.815 E28.23194
G1 X111.007 Y102.48 E28.77889
G1 X111.007 Y102.97 E28.80363
G1 X103.342 Y95.305 E29.35057
G1 X103.342 Y95.795 E29.37532
G1 X111.007 Y103.46 E29.92225
G1 X111.007 Y103.951 E29.947
G1 X103.342 Y96.286 E30.49393
G1 X103.342 Y96.776 E30.51867
G1 X111.007 Y104.441 E31.0656
G1 X111.007 Y104.932 E31.09034
G1 X103.342 Y97.267 E31.63727
G1 X103.342 Y97.757 E31.66201
G1 X111.007 Y105.422 E32.20893
G1 X111.007 Y105.912 E32.23367
G1 X103.342 Y98.248 E32.78059
G1 X103.342 Y98.738 E32.80533
G1 X111.007 Y106.403 E33.35224
G1 X111.007 Y106.893 E33.37698
G1 X103.342 Y99.228 E33.92388
G1 X103.342 Y99.719 E33.94863
G1 X111.007 Y107.383 E34.49553
G1 X111.007 Y107.874 E34.52027
G1 X103.342 Y100.209 E35.06716
G1 X103.342 Y100.7 E35.09191
G1 X110.599 Y107.957 E35.60972
G1 X110.109 Y107.957 E35.63446
G1 X103.342 Y101.19 E36.11728
G1 X103.342 Y101.681 E36.14202
G1 X109.618 Y107.957 E36.58985
G1 X109.128 Y107.957 E36.61459
G1 X103.342 Y102.171 E37.02741
G1 X103.343 Y102.662 E37.05216
G1 X108.638 Y107.957 E37.42999
G1 X108.147 Y107.957 E37.45473
G1 X103.343 Y103.152 E37.79757
G1 X103.343 Y103.642 E37.82232
G1 X107.657 Y107.957 E38.13016
G1 X107.167 Y107.957 E38.1549
G1 X103.343 Y104.133 E38.42775
G1 X103.343 Y104.623 E38.45249
G1 X106.676 Y107.957 E38.69034
G1 X106.186 Y107.957 E38.71508
G1 X103.343 Y105.114 E38.91794
G1 X103.343 Y105.604 E38.94269
G1 X105.695 Y107.957 E39.11055
G1 X105.205 Y107.957 E39.13529
G1 X103.343 Y106.095 E39.26816
G1 X103.343 Y106.585 E39.2929
G1 X104.715 Y107.957 E39.39077
G1 X104.224 Y107.957 E39.41551
G1 X103.343 Y107.075 E39.47839
G1 X103.343 Y107.566 E39.50314
G1 X103.889 Y108.112 E39.54209
;LAYER_CHANGE
;Z:0.65
;HEIGHT:0.3
G1 Z.65 F7800
G1 E37.54209 F2400
G92 E0
G1 X95.92 Y108.419 F7800
G1 E2 F2400
;TYPE:Perimeter
;WIDTH:0.45
G1 F3600
G1 X88.53 Y108.42 E2.3554
G1 X88.531 Y75.915 E3.91875
G1 X88.552 Y75.592 E3.93433
G1 X88.622 Y75.288 E3.94932
G1 X98.38 Y75.288 E4.41867
G1 X98.427 Y75.458 E4.42715
G1 X98.031 Y75.694 E4.44932
G1 X97.673 Y76.009 E4.47226
G1 X97.413 Y76.365 E4.49345
G1 X97.274 Y76.646 E4.50853
G1 X97.162 Y77.006 E4.52668
G1 X97.12 Y77.362 E4.54389
G1 X97.12 Y108.419 E6.03764
