;FLAVOR:RepRap
;TIME:4217
;Filament used: 1.6784m
;Layer height: 0.09
;MINX:47.635
;MINY:79.71
;MINZ:0.4
;MAXX:151.575
;MAXY:95.289
;MAXZ:28.48
;Generated with Cura_SteamEngine 4.8.0
T0
M82 ;absolute extrusion mode
;was: X200 Y183 Z178

; 12v rail on
M98 P"/macros/cooling-on.g"
M98 P"/macros/lights-on.g"

; Heat chamber & wait
M191 R70


; Heat extruder & wait
M109 S270.0



; Prime the extruder
G92 E0
G1 F200 E3
G92 E0
M141 S70
M83 ;relative extrusion mode
G1 F1500 E-6.5
;LAYER_COUNT:313
;LAYER:0
M107
G0 F1800 X50.005 Y80.687 Z0.4
;TYPE:SKIRT
G1 F1500 E6.5
G1 F1200 X50.467 Y80.4 E0.05427
G1 X50.647 Y80.305 E0.02031
G1 X51.137 Y80.086 E0.05355
G1 X51.329 Y80.015 E0.02043
G1 X51.847 Y79.864 E0.05384
G1 X52.045 Y79.82 E0.02024
G1 X52.58 Y79.74 E0.05398
G1 X53.125 Y79.711 E0.05446
G1 X148.975 Y79.71 E9.56395
G1 X149.088 Y79.714 E0.01128
G1 X149.606 Y79.753 E0.05183
G1 X150.294 Y79.931 E0.07091
G1 X150.609 Y80.074 E0.03452
G1 X151.057 Y80.448 E0.05823
G1 X151.281 Y80.712 E0.03455
G1 X151.521 Y81.3 E0.06337
G1 X151.575 Y81.697 E0.03998
G1 X151.575 Y93.312 E1.15895
G1 X151.535 Y93.656 E0.03456
G1 X151.382 Y94.08 E0.04498
G1 X151.215 Y94.383 E0.03452
G1 X150.853 Y94.742 E0.05087
G1 X150.316 Y95.069 E0.06273
G1 X149.617 Y95.241 E0.07183
G1 X148.928 Y95.289 E0.06892
G1 X52.995 Y95.288 E9.57223
G1 X52.848 Y95.281 E0.01468
G1 X52.331 Y95.23 E0.05184
G1 X52.135 Y95.197 E0.01983
G1 X51.612 Y95.074 E0.05361
G1 X51.421 Y95.016 E0.01992
G1 X50.941 Y94.833 E0.05126
G1 X50.761 Y94.75 E0.01978
G1 X50.262 Y94.48 E0.05661
G1 X50.085 Y94.368 E0.0209
G1 X49.65 Y94.047 E0.05394
G1 X49.494 Y93.914 E0.02045
G1 X49.107 Y93.537 E0.05391
G1 X48.974 Y93.389 E0.01985
G1 X48.656 Y92.984 E0.05138
G1 X48.543 Y92.818 E0.02004
G1 X48.257 Y92.331 E0.05635
G1 X48.164 Y92.145 E0.02075
G1 X47.957 Y91.645 E0.054
G1 X47.892 Y91.453 E0.02023
G1 X47.756 Y90.936 E0.05334
G1 X47.718 Y90.739 E0.02002
G1 X47.654 Y90.225 E0.05168
G1 X47.636 Y89.8 E0.04244
G1 X47.635 Y85.178 E0.46119
G1 X47.639 Y85.071 E0.01068
G1 X47.676 Y84.555 E0.05162
G1 X47.702 Y84.361 E0.01953
G1 X47.81 Y83.833 E0.05377
G1 X47.866 Y83.634 E0.02063
G1 X48.046 Y83.125 E0.05387
G1 X48.124 Y82.942 E0.01985
G1 X48.371 Y82.459 E0.05413
G1 X48.477 Y82.284 E0.02042
G1 X48.784 Y81.844 E0.05353
G1 X48.911 Y81.685 E0.0203
G1 X49.279 Y81.286 E0.05416
G1 X49.428 Y81.145 E0.02047
G1 X49.843 Y80.803 E0.05366
G1 X50.005 Y80.687 E0.01988
G0 F1800 X50.322 Y81.197
G1 F1200 X50.784 Y80.91 E0.05427
G1 X50.892 Y80.852 E0.01223
G1 X51.382 Y80.633 E0.05355
G1 X51.497 Y80.591 E0.01222
G1 X52.015 Y80.44 E0.05384
G1 X52.134 Y80.414 E0.01215
G1 X52.669 Y80.334 E0.05398
G1 X53.125 Y80.311 E0.04556
G1 X148.975 Y80.31 E9.56395
G1 X149.043 Y80.313 E0.00679
G1 X149.561 Y80.352 E0.05183
G1 X150.111 Y80.502 E0.05688
G1 X150.449 Y80.701 E0.03914
G1 X150.814 Y81.096 E0.05366
G1 X150.943 Y81.459 E0.03844
G1 X150.975 Y81.697 E0.02396
G1 X150.975 Y93.312 E1.15895
G1 X150.908 Y93.652 E0.03458
G1 X150.69 Y94.083 E0.04819
G1 X150.276 Y94.413 E0.05283
G1 X149.95 Y94.556 E0.03552
G1 X149.333 Y94.674 E0.06268
G1 X148.875 Y94.69 E0.04573
G1 X52.995 Y94.688 E9.56695
G1 X52.907 Y94.684 E0.00879
G1 X52.39 Y94.633 E0.05184
G1 X52.272 Y94.613 E0.01194
G1 X51.749 Y94.49 E0.05361
G1 X51.634 Y94.455 E0.01199
G1 X51.154 Y94.272 E0.05126
G1 X51.047 Y94.223 E0.01174
G1 X50.548 Y93.953 E0.05661
G1 X50.442 Y93.885 E0.01257
G1 X50.007 Y93.564 E0.05394
G1 X49.913 Y93.485 E0.01225
G1 X49.526 Y93.108 E0.05391
G1 X49.446 Y93.019 E0.01194
G1 X49.128 Y92.614 E0.05138
G1 X49.06 Y92.514 E0.01207
G1 X48.774 Y92.027 E0.05635
G1 X48.718 Y91.915 E0.01249
G1 X48.511 Y91.415 E0.054
G1 X48.473 Y91.3 E0.01208
G1 X48.337 Y90.783 E0.05334
G1 X48.314 Y90.665 E0.012
G1 X48.25 Y90.151 E0.05168
G1 X48.236 Y89.8 E0.03505
G1 X48.235 Y85.178 E0.46119
G1 X48.237 Y85.114 E0.00639
G1 X48.274 Y84.598 E0.05162
G1 X48.29 Y84.482 E0.01168
G1 X48.398 Y83.954 E0.05377
G1 X48.431 Y83.834 E0.01242
G1 X48.611 Y83.325 E0.05387
G1 X48.659 Y83.215 E0.01198
G1 X48.906 Y82.732 E0.05413
G1 X48.969 Y82.627 E0.01222
G1 X49.276 Y82.187 E0.05353
G1 X49.352 Y82.092 E0.01214
G1 X49.72 Y81.693 E0.05416
G1 X49.81 Y81.608 E0.01235
G1 X50.225 Y81.266 E0.05366
G1 X50.322 Y81.197 E0.01188
G0 F1800 X50.639 Y81.706
G1 F1200 X51.101 Y81.419 E0.05427
G1 X51.137 Y81.4 E0.00406
G1 X51.627 Y81.181 E0.05355
G1 X51.665 Y81.167 E0.00404
G1 X52.183 Y81.016 E0.05384
G1 X52.223 Y81.007 E0.00409
G1 X52.758 Y80.927 E0.05398
G1 X53.125 Y80.911 E0.03665
G1 X148.975 Y80.91 E9.56395
G1 X149.516 Y80.95 E0.05413
G1 X149.927 Y81.073 E0.04281
G1 X150.238 Y81.325 E0.03994
G1 X150.364 Y81.618 E0.03182
G1 X150.375 Y81.697 E0.00796
G1 X150.375 Y93.312 E1.15895
G1 X150.271 Y93.626 E0.033
G1 X150.165 Y93.759 E0.01697
G1 X149.823 Y93.969 E0.04004
G1 X149.312 Y94.075 E0.05207
G1 X148.875 Y94.09 E0.04363
G1 X52.966 Y94.087 E9.56984
G1 X52.449 Y94.036 E0.05184
G1 X52.409 Y94.029 E0.00405
G1 X51.886 Y93.906 E0.05361
G1 X51.848 Y93.894 E0.00398
G1 X51.368 Y93.711 E0.05126
G1 X51.332 Y93.695 E0.00393
G1 X50.833 Y93.425 E0.05661
G1 X50.798 Y93.402 E0.00418
G1 X50.363 Y93.081 E0.05394
G1 X50.332 Y93.055 E0.00404
G1 X49.945 Y92.678 E0.05391
G1 X49.918 Y92.648 E0.00403
G1 X49.6 Y92.243 E0.05138
G1 X49.577 Y92.21 E0.00401
G1 X49.291 Y91.723 E0.05635
G1 X49.273 Y91.686 E0.00411
G1 X49.066 Y91.186 E0.054
G1 X49.053 Y91.147 E0.0041
G1 X48.917 Y90.63 E0.05334
G1 X48.909 Y90.591 E0.00397
G1 X48.843 Y90.049 E0.05448
G1 X48.836 Y89.8 E0.02486
G1 X48.836 Y85.157 E0.46328
G1 X48.873 Y84.641 E0.05162
G1 X48.878 Y84.602 E0.00392
G1 X48.986 Y84.074 E0.05377
G1 X48.997 Y84.034 E0.00414
G1 X49.177 Y83.525 E0.05387
G1 X49.193 Y83.488 E0.00402
G1 X49.44 Y83.005 E0.05413
G1 X49.461 Y82.97 E0.00407
G1 X49.768 Y82.53 E0.05353
G1 X49.793 Y82.499 E0.00397
G1 X50.161 Y82.1 E0.05416
G1 X50.191 Y82.071 E0.00416
G1 X50.606 Y81.729 E0.05366
G1 X50.639 Y81.706 E0.00401
G1 F1500 E-6.5
;MESH:Z endstop mount.stl
G0 F1800 X51.687 Y82.489
G0 X63.246 Y90.727
G0 X63.464 Y90.062
;TYPE:WALL-OUTER
G1 F1500 E6.5
G1 F1200 X64.05 Y90.253 E0.0615
G1 X64.662 Y90.313 E0.06136
G1 X65.234 Y90.245 E0.05748
G1 X65.786 Y90.061 E0.05806
G1 X66.314 Y89.748 E0.06125
G1 X66.735 Y89.358 E0.05726
G1 X67.064 Y88.899 E0.05635
G1 X67.297 Y88.374 E0.05731
G1 X67.422 Y87.789 E0.05969
G1 X67.42 Y87.189 E0.05987
G1 X67.286 Y86.589 E0.06134
G1 X67.024 Y86.033 E0.06133
G1 X66.676 Y85.577 E0.05724
G1 X66.235 Y85.194 E0.05828
G1 X65.696 Y84.9 E0.06126
G1 X65.15 Y84.739 E0.0568
G1 X64.698 Y84.689 E0.04538
G1 X64.089 Y84.739 E0.06097
G1 X63.517 Y84.916 E0.05974
G1 X63.015 Y85.194 E0.05726
G1 X62.563 Y85.588 E0.05983
G1 X62.206 Y86.068 E0.05969
G1 X61.966 Y86.589 E0.05724
G1 X61.831 Y87.173 E0.05981
G1 X61.826 Y87.772 E0.05977
G1 X61.939 Y88.333 E0.0571
G1 X62.168 Y88.869 E0.05816
G1 X62.497 Y89.339 E0.05724
G1 X62.935 Y89.747 E0.05973
G1 X63.464 Y90.062 E0.06143
G0 F1800 X63.654 Y90.124
G0 X63.437 Y90.789
G0 X64.433 Y90.923
G0 X112.737 Y90.457
G0 X113.06 Y89.837
G1 F1200 X113.607 Y90.121 E0.0615
G1 X114.202 Y90.28 E0.06145
G1 X114.818 Y90.306 E0.06152
G1 X115.425 Y90.196 E0.06155
G1 X115.993 Y89.958 E0.06145
G1 X116.494 Y89.601 E0.06138
G1 X116.881 Y89.178 E0.05721
G1 X117.17 Y88.693 E0.05633
G1 X117.359 Y88.153 E0.05709
G1 X117.437 Y87.558 E0.05988
G1 X117.384 Y86.962 E0.0597
G1 X117.219 Y86.413 E0.0572
G1 X116.939 Y85.903 E0.05805
G1 X116.566 Y85.466 E0.05733
G1 X116.092 Y85.1 E0.05975
G1 X115.535 Y84.838 E0.06142
G1 X114.959 Y84.709 E0.0589
G1 X114.677 Y84.69 E0.0282
G1 X114.089 Y84.739 E0.05887
G1 X113.517 Y84.916 E0.05974
G1 X113.015 Y85.194 E0.05726
G1 X112.574 Y85.576 E0.05822
G1 X112.205 Y86.068 E0.06136
G1 X111.952 Y86.629 E0.06141
G1 X111.826 Y87.232 E0.06147
G1 X111.834 Y87.847 E0.06137
G1 X111.963 Y88.407 E0.05734
G1 X112.216 Y88.951 E0.05986
G1 X112.59 Y89.44 E0.06143
G1 X113.06 Y89.837 E0.06139
G0 F1800 X113.237 Y89.929
G0 X112.914 Y90.549
G0 X114.105 Y90.916
G0 X114.861 Y90.947
G0 X149.102 Y82.195
G0 X149.432 Y81.545
G1 F1200 X149.682 Y81.626 E0.02622
G1 X149.775 Y81.739 E0.0146
G1 X149.775 Y93.255 E1.14907
G1 X149.75 Y93.316 E0.00658
G1 X149.634 Y93.397 E0.01412
G1 X149.269 Y93.476 E0.03726
G1 X148.864 Y93.49 E0.04044
G1 X53.014 Y93.488 E9.56395
G1 X52.523 Y93.439 E0.04924
G1 X52.039 Y93.326 E0.04959
G1 X51.603 Y93.161 E0.04652
G1 X51.135 Y92.906 E0.05318
G1 X50.738 Y92.613 E0.04923
G1 X50.379 Y92.263 E0.05003
G1 X50.087 Y91.892 E0.04711
G1 X49.819 Y91.435 E0.05286
G1 X49.628 Y90.976 E0.04961
G1 X49.503 Y90.499 E0.0492
G1 X49.436 Y89.8 E0.07007
G1 X49.435 Y85.184 E0.46059
G1 X49.469 Y84.704 E0.04801
G1 X49.57 Y84.213 E0.05002
G1 X49.736 Y83.743 E0.04974
G1 X49.964 Y83.298 E0.04989
G1 X50.25 Y82.889 E0.0498
G1 X50.589 Y82.521 E0.04992
G1 X50.972 Y82.205 E0.04954
G1 X51.398 Y81.94 E0.05006
G1 X51.853 Y81.737 E0.04971
G1 X52.33 Y81.598 E0.04957
G1 X52.831 Y81.523 E0.05055
G1 X53.137 Y81.511 E0.03056
G1 X148.966 Y81.51 E9.56186
G1 X149.432 Y81.545 E0.04663
G0 F1800 X149.622 Y81.606
G0 X149.175 Y82.127
;TYPE:WALL-INNER
G1 F1200 X149.175 Y82.313 E0.01856
G1 X149.175 Y92.745 E1.04091
G1 X149.175 Y92.879 E0.01337
G1 X148.843 Y92.89 E0.03315
G1 X148.709 Y92.89 E0.01337
G1 X53.044 Y92.888 E9.54549
G1 X52.618 Y92.846 E0.04271
G1 X52.215 Y92.751 E0.04131
G1 X51.856 Y92.616 E0.03827
G1 X51.458 Y92.399 E0.04523
G1 X51.13 Y92.156 E0.04073
G1 X50.822 Y91.856 E0.0429
G1 X50.588 Y91.559 E0.03773
G1 X50.356 Y91.164 E0.04571
G1 X50.196 Y90.779 E0.0416
G1 X50.095 Y90.394 E0.03972
G1 X50.036 Y89.774 E0.06214
G1 X50.035 Y85.212 E0.4552
G1 X50.065 Y84.785 E0.04271
G1 X50.15 Y84.374 E0.04188
G1 X50.289 Y83.98 E0.04169
G1 X50.479 Y83.609 E0.04159
G1 X50.72 Y83.265 E0.04191
G1 X51.002 Y82.959 E0.04152
G1 X51.327 Y82.691 E0.04203
G1 X51.678 Y82.472 E0.04128
G1 X52.059 Y82.302 E0.04163
G1 X52.461 Y82.185 E0.04178
G1 X53.161 Y82.111 E0.07024
G1 X148.762 Y82.11 E9.53911
G1 X148.948 Y82.11 E0.01856
G1 X149.175 Y82.127 E0.02271
G0 F1800 X149.102 Y82.195
G0 X115.607 Y90.813
G0 X114.861 Y90.947
G0 X114.105 Y90.916
G0 X112.669 Y90.422
G0 X112.724 Y90.339
G1 F1200 X113.389 Y90.684 E0.07475
G1 X114.111 Y90.877 E0.07457
G1 X114.859 Y90.908 E0.0747
G1 X115.596 Y90.775 E0.07473
G1 X116.287 Y90.486 E0.07474
G1 X116.894 Y90.053 E0.0744
G1 X117.365 Y89.538 E0.06964
G1 X117.716 Y88.948 E0.0685
G1 X117.946 Y88.293 E0.06927
G1 X118.04 Y87.571 E0.07265
G1 X117.976 Y86.848 E0.07242
G1 X117.775 Y86.18 E0.06961
G1 X117.435 Y85.56 E0.07056
G1 X116.982 Y85.029 E0.06964
G1 X116.407 Y84.585 E0.07249
G1 X115.731 Y84.267 E0.07454
G1 X115.045 Y84.113 E0.07015
G1 X114.672 Y84.088 E0.0373
G1 X113.974 Y84.146 E0.06989
G1 X113.28 Y84.361 E0.07249
G1 X112.67 Y84.699 E0.06959
G1 X112.133 Y85.165 E0.07094
G1 X111.685 Y85.761 E0.0744
G1 X111.378 Y86.442 E0.07454
G1 X111.225 Y87.174 E0.07462
G1 X111.235 Y87.919 E0.07434
G1 X111.392 Y88.603 E0.07002
G1 X111.7 Y89.263 E0.07267
G1 X112.153 Y89.856 E0.07446
G1 X112.724 Y90.339 E0.07462
G0 F1800 X112.669 Y90.422
G0 X64.668 Y90.955
G0 X63.173 Y90.703
G0 X63.214 Y90.612
G1 F1200 X63.926 Y90.844 E0.07472
G1 X64.668 Y90.916 E0.07438
G1 X65.366 Y90.834 E0.07013
G1 X66.037 Y90.61 E0.07058
G1 X66.675 Y90.232 E0.07399
G1 X67.187 Y89.757 E0.06969
G1 X67.587 Y89.199 E0.06851
G1 X67.871 Y88.56 E0.06977
G1 X68.022 Y87.851 E0.07233
G1 X68.02 Y87.122 E0.07274
G1 X67.857 Y86.393 E0.07454
G1 X67.54 Y85.72 E0.07423
G1 X67.116 Y85.164 E0.06977
G1 X66.579 Y84.698 E0.07094
G1 X65.927 Y84.343 E0.07408
G1 X65.269 Y84.148 E0.06848
G1 X64.707 Y84.086 E0.05642
G1 X63.974 Y84.146 E0.07338
G1 X63.28 Y84.361 E0.07249
G1 X62.669 Y84.7 E0.06972
G1 X62.12 Y85.178 E0.07263
G1 X61.687 Y85.76 E0.07238
G1 X61.395 Y86.394 E0.06965
G1 X61.232 Y87.102 E0.07249
G1 X61.226 Y87.829 E0.07254
G1 X61.363 Y88.512 E0.06951
G1 X61.641 Y89.162 E0.07054
G1 X62.042 Y89.735 E0.06978
G1 X62.573 Y90.23 E0.07243
G1 X63.214 Y90.612 E0.07446
G0 F1800 X62.968 Y91.153
;TYPE:SKIN
G1 F1200 X63.804 Y91.425 E0.08772
G1 X64.674 Y91.51 E0.08722
G1 X65.496 Y91.412 E0.0826
G1 X66.283 Y91.149 E0.0828
G1 X67.031 Y90.708 E0.08664
G1 X67.632 Y90.149 E0.0819
G1 X68.102 Y89.494 E0.08044
G1 X68.435 Y88.743 E0.08197
G1 X68.612 Y87.912 E0.08478
G1 X68.61 Y87.056 E0.08541
G1 X68.419 Y86.2 E0.08751
G1 X68.047 Y85.411 E0.08704
G1 X67.549 Y84.758 E0.08194
G1 X66.917 Y84.21 E0.08347
G1 X66.155 Y83.795 E0.08658
G1 X65.386 Y83.568 E0.08
G1 X64.715 Y83.494 E0.06736
G1 X63.862 Y83.564 E0.0854
G1 X63.048 Y83.816 E0.08502
G1 X62.329 Y84.214 E0.082
G1 X61.685 Y84.775 E0.08522
G1 X61.177 Y85.457 E0.08485
G1 X60.834 Y86.203 E0.08193
G1 X60.642 Y87.033 E0.085
G1 X60.636 Y87.886 E0.08511
G1 X60.797 Y88.687 E0.08152
G1 X61.122 Y89.451 E0.08284
G1 X61.594 Y90.124 E0.08202
G1 X62.217 Y90.704 E0.08493
G1 X62.968 Y91.153 E0.08731
G0 F1800 X53.081 Y92.298
G1 F1200 X52.387 Y92.186 E0.07014
G1 X51.777 Y91.901 E0.06718
G1 X51.268 Y91.466 E0.06681
G1 X50.884 Y90.898 E0.06841
G1 X50.679 Y90.298 E0.06327
G1 X50.626 Y89.739 E0.05603
G1 X50.625 Y85.212 E0.45171
G1 X50.721 Y84.529 E0.06882
G1 X50.984 Y83.916 E0.06656
G1 X51.407 Y83.389 E0.06743
G1 X51.958 Y82.994 E0.06765
G1 X52.582 Y82.765 E0.06632
G1 X53.185 Y82.701 E0.06051
G1 X148.585 Y82.7 E9.51905
G1 X148.585 Y92.3 E0.95789
G1 X53.081 Y92.298 E9.52943
G0 F1800 X110.645 Y87.99
G1 F1200 X110.831 Y88.796 E0.08254
G1 X111.192 Y89.57 E0.08522
G1 X111.723 Y90.265 E0.08727
G1 X112.394 Y90.833 E0.08772
G1 X113.175 Y91.237 E0.08774
G1 X114.022 Y91.463 E0.08747
G1 X114.9 Y91.5 E0.08768
G1 X115.765 Y91.344 E0.0877
G1 X116.576 Y91.005 E0.08771
G1 X117.287 Y90.497 E0.08719
G1 X117.841 Y89.892 E0.08185
G1 X118.253 Y89.199 E0.08045
G1 X118.523 Y88.431 E0.08123
G1 X118.634 Y87.583 E0.08534
G1 X118.558 Y86.736 E0.08485
G1 X118.322 Y85.95 E0.08189
G1 X117.923 Y85.223 E0.08275
G1 X117.391 Y84.6 E0.08174
G1 X116.716 Y84.079 E0.08508
G1 X115.924 Y83.706 E0.08735
G1 X115.13 Y83.527 E0.08121
G1 X114.668 Y83.496 E0.0462
G1 X113.861 Y83.564 E0.08081
G1 X113.048 Y83.816 E0.08493
G1 X112.33 Y84.213 E0.08186
G1 X111.699 Y84.76 E0.08333
G1 X111.174 Y85.459 E0.08723
G1 X110.814 Y86.259 E0.08753
G1 X110.635 Y87.117 E0.08745
G1 X110.645 Y87.99 E0.08711
G0 F1800 X112.125 Y89.883
G0 X112.702 Y90.372
G0 X113.375 Y90.721
G0 X114.105 Y90.916
G0 X114.861 Y90.947
G0 X148.304 Y83.816
G1 F1200 X147.468 Y82.98 E0.11797
G0 F1800 X146.62 Y82.98
G1 F1200 X148.304 Y84.664 E0.23763
G0 F1800 X148.304 Y85.513
G1 F1200 X145.771 Y82.98 E0.35743
G0 F1800 X144.922 Y82.98
G1 F1200 X148.304 Y86.361 E0.47717
G0 F1800 X148.304 Y87.21
G1 F1200 X144.074 Y82.98 E0.5969
G0 F1800 X143.225 Y82.98
G1 F1200 X148.304 Y88.058 E0.71663
G0 F1800 X148.304 Y88.907
G1 F1200 X142.377 Y82.98 E0.83636
G0 F1800 X141.528 Y82.98
G1 F1200 X148.304 Y89.755 E0.9561
G0 F1800 X148.304 Y90.604
G1 F1200 X140.68 Y82.98 E1.07583
G0 F1800 X139.831 Y82.98
G1 F1200 X148.304 Y91.452 E1.19556
G0 F1800 X148.022 Y92.019
G1 F1200 X138.983 Y82.98 E1.2755
G0 F1800 X138.134 Y82.98
G1 F1200 X147.173 Y92.019 E1.2755
G0 F1800 X146.325 Y92.019
G1 F1200 X137.286 Y82.98 E1.2755
G0 F1800 X136.437 Y82.98
G1 F1200 X145.476 Y92.019 E1.2755
G0 F1800 X144.628 Y92.019
G1 F1200 X135.589 Y82.98 E1.2755
G0 F1800 X134.74 Y82.98
G1 F1200 X143.779 Y92.019 E1.2755
G0 F1800 X142.931 Y92.019
G1 F1200 X133.892 Y82.98 E1.2755
G0 F1800 X133.043 Y82.98
G1 F1200 X142.082 Y92.019 E1.2755
G0 F1800 X141.233 Y92.019
G1 F1200 X132.195 Y82.98 E1.27543
G0 F1800 X131.346 Y82.98
G1 F1200 X140.385 Y92.019 E1.2755
G0 F1800 X139.536 Y92.019
G1 F1200 X130.497 Y82.98 E1.2755
G0 F1800 X129.649 Y82.98
G1 F1200 X138.688 Y92.019 E1.2755
G0 F1800 X137.839 Y92.019
G1 F1200 X128.8 Y82.98 E1.2755
G0 F1800 X127.952 Y82.98
G1 F1200 X136.991 Y92.019 E1.2755
G0 F1800 X136.142 Y92.019
G1 F1200 X127.103 Y82.98 E1.2755
G0 F1800 X126.255 Y82.98
G1 F1200 X135.294 Y92.019 E1.2755
G0 F1800 X134.445 Y92.019
G1 F1200 X125.406 Y82.98 E1.2755
G0 F1800 X124.558 Y82.98
G1 F1200 X133.597 Y92.019 E1.2755
G0 F1800 X132.748 Y92.019
G1 F1200 X123.709 Y82.98 E1.2755
G0 F1800 X122.861 Y82.98
G1 F1200 X131.9 Y92.019 E1.2755
G0 F1800 X131.051 Y92.019
G1 F1200 X122.012 Y82.98 E1.2755
G0 F1800 X121.164 Y82.98
G1 F1200 X130.203 Y92.019 E1.2755
G0 F1800 X129.354 Y92.019
G1 F1200 X120.315 Y82.98 E1.2755
